X: 434
T: Valse No. 5e.	 Op. 70
C: Fryderyk Chopin
%%abc-version 2.0
%%abcx-abcm2ps-target-version 5.9.1 (29 Sep 2008)
%%abc-creator hum2abc beta
%%abcx-conversion-date 2021/10/03 11:23:32
%%abc-edited-by Emilia Ziętek
%%abc-edited-by Wojciech Jakubiak-Danek
%%abcx-initial-encoding-date 2020-02-10
%%humdrum-veritas 1457066951
%%humdrum-veritas-data 2003171010
%%linebreak <none>
%%barnumbers 0
L: 1/4
M: 3/4
N: Derived from 070-1-MEIf-003.krn
P: Œuvres Posthumes pour Piano
Q: "[quarter] = 108" 1/4=108
%%staves {1 2}
V: 1 clef=treble
V: 2 clef=bass
K: Db
[V:1] B/A/ [I:setbarnb 1]| 
[V:2] z | 
[V:1] f2f/g/ & f/F/G/=G/A- | 
[V:2] D,[DA,F,][DA,F,] | 
[V:1] f>fe & A/=G/A/__B/A/_G/- | 
[V:2] A,,[CG,E,][CG,E,] | 
[V:1] d>cB/e/ & G/F/A=G | 
[V:2] x[DB,][DB,E,] & B,,2x | 
[V:1] !trill!d/c/B/c/A & _G2G | 
[V:2] A,,[EA,][EA,] | 
[V:1] f2f/g/ & z/ F/G/=G/A- | 
[V:2] D,[DA,F,][DA,F,] | 
[V:1] f>fe- & A/A/__BA/G/ | 
[V:2] A,,[CG,E,]__B,, | 
[V:1] e/d/ B/c'/b/c/ & FB3/c/ | 
[V:2] =B,,[EB,G,][GEA,] | 
[V:1] dzz & d/F/G/=G/B/A/ | 
[V:2] [FD]zz | 
[V:1] f2f/g/ & f/F/G/=G/A- | 
[V:2] D,[DA,F,][DA,F,] | 
[V:1] f>fe & A/=G/A/__B/A/_G/- | 
[V:2] A,,[CG,E,][CG,E,] | 
[V:1] d>cB/e/ & G/F/A=G | 
[V:2] x[DB,][DB,E,] & B,,2x | 
[V:1] !trill!d/c/B/c/A & _G2G | 
[V:2] A,,[EA,][EA,] | 
[V:1] f2f/g/ & z/ F/G/=G/A- | 
[V:2] D,[DA,F,][DA,F,] | 
[V:1] f>fe- & A/A/__BA/G/ | 
[V:2] A,,[CG,E,]__B,, | 
[V:1] e/d/ B/c'/b/c/ & FB3/c/ | 
[V:2] =B,,[EB,G,][GEA,] | 
[V:1] d/F/G/=G/A/c/ | 
[V:2] [FD]zz | 
[V:1] !accent!f>ef/e/ & d>=Gd/G/ | 
[V:2] [E,E,,][EE,][EE,] | 
[V:1] f/e/f/e/f/e/ & c/A/c/A/c/A/ | 
[V:2] [A,A,,][EA,]z | 
[V:1] !accent!e>de/d/ & _c>Fc/F/ | 
[V:2] [D,D,,][DD,][DD,] | 
[V:1] !accent!e/d/!accent!e/d/!accent!e/d/ & B/G/B/G/B/G/ | 
[V:2] G,,[DB,G,]z | 
[V:1] d/e/!trill!d/c/d/e/ & __B/G/B/G/B/G/ | 
[V:2] G,,[D__B,G,][DB,G,] | 
[V:1] fe/d/c/B/ & A/F/A/F/_F/D/ | 
[V:2] D,[DA,F,]=G,, | 
[V:1] B/A/B/A/B/A/ & =F/C/G/C/G/C/ | 
[V:2] A,,A,[A,A,,] | 
[V:1] [dF]>cd/=d/ | 
[V:2] [A,D,]D,,z | 
[V:1] !accent!f>ef/e/ & _d>=Gd/G/ | 
[V:2] [E,E,,][EE,][EE,] | 
[V:1] f/e/f/e/f/e/ & c/A/c/A/c/A/ | 
[V:2] [A,A,,][EA,]z | 
[V:1] !accent!e>de/d/ & _c>Fc/F/ | 
[V:2] [D,D,,][DD,][DD,] | 
[V:1] !accent!e/d/!accent!e/d/!accent!e/d/ & B/G/B/G/B/G/ | 
[V:2] G,,[DB,G,]z | 
[V:1] d/e/!trill!d/c/d/e/ & __B/G/B/G/B/G/ | 
[V:2] G,,[D__B,G,][DB,G,] | 
[V:1] fe/d/c/B/ & A/F/A/F/_F/D/ | 
[V:2] D,[DA,F,]=G,, | 
[V:1] B/A/B/A/B/A/ & =F/C/G/C/G/C/ | 
[V:2] A,,A,[A,A,,] | 
[V:1] [dF]zD ]|:  
[V:2] [A,D,]D,,z ]|:  
[V:1]  [K:Gb] B3 & z[DB,][DB,] | 
[V:2]  [K:Gb] G,,/D,/E,/F,/G,/A,/ | 
[V:1] !accent!G2F & zDD | 
[V:2] B,2A, | 
[V:1] !accent!A2=G & zDD | 
[V:2] C2B, | 
[V:1] B3 & z[=GE][GE] | 
[V:2] E2D | 
[V:1] e2d & A[AE][=GE] | 
[V:2] CD/C/B, | 
[V:1] c2=c & [AE][AE][=AE] | 
[V:2] A,B,/A,/G, | 
[V:1] d2[=cA] & [_AD][AD]G | 
[V:2] F,G,/F,/E, | 
[V:1] [e_c][dB][cA] & GF/E/F | 
[V:2] !trill!D,3{/=C,D,} | 
[V:1] [B3G3] & z[DB,][DB,] | 
[V:2] G,,/D,/E,/F,/G,/A,/ | 
[V:1] G2F & zDD | 
[V:2] B,2A, | 
[V:1] A2=G & zDD | 
[V:2] C2B, | 
[V:1] B3 & z[=GE][GE] | 
[V:2] E2D | 
[V:1] e2d & [AE][AE][=GE] | 
[V:2] CD/C/B, | 
[V:1] c2=c & [AE][AE][=AE] | 
[V:2] A,B,/A,/G, | 
[V:1] dzd & [_AD]x[cF] |[1 
[V:2] F,/E,/D,/C,/B,,/A,,/ | 
[V:1] [gBG]zD :|][2 
[V:2] G,,zz :|]  
[V:1] [gBG]z[BGD] ]|: 
[V:2] G,,zz ]|:  
[V:1]  [K:Db] B>AB/A/ & G>=CG/C/ | 
[V:2]  [K:Db] [A,,A,,,][A,A,,][A,A,,] | 
[V:1] FA/d/[fd] & DF/A3/ | 
[V:2] [D,D,,][A,D,]z | 
[V:1] f>ef/e/ & c2c | 
[V:2] [A,A,,][EA,][EA,] | 
[V:1] [dF][c/A/][B/G/][AF] | 
[V:2] D,[DA,F,]z | 
[V:1] B>AB/A/ & G>CG/C/ | 
[V:2] [A,,A,,,][A,A,,][A,A,,] | 
[V:1] FA/d/[fd] & DF/A3/ | 
[V:2] [D,D,,][A,D,]z | 
[V:1] f>e f/e/ & c3 |[1 
[V:2] [A,A,,][EA,][EA,] | 
[V:1] d2A & F2F :|][2 
[V:2] D,[DA,F,]z :|]  
[V:1] [dF]zD || 
[V:2] D,[DA,F,]z ||  
[V:1]  [K:Gb] B3 & z[DB,][DB,] | 
[V:2]  [K:Gb] G,,/D,/E,/F,/G,/A,/ | 
[V:1] !accent!G2F & zDD | 
[V:2] B,2A, | 
[V:1] !accent!A2=G & zDD | 
[V:2] C2B, | 
[V:1] B3 & z[=GE][GE] | 
[V:2] E2D | 
[V:1] e2d & A[AE][=GE] | 
[V:2] CD/C/B, | 
[V:1] c2=c & [AE][AE][=AE] | 
[V:2] A,B,/A,/G, | 
[V:1] d2[=cA] & [_AD][AD]G | 
[V:2] F,G,/F,/E, | 
[V:1] [e_c][dB][cA] & GF/E/F | 
[V:2] !trill!D,3{/=C,D,} | 
[V:1] [B3G3] & z[DB,][DB,] | 
[V:2] G,,/D,/E,/F,/G,/A,/ | 
[V:1] G2F & zDD | 
[V:2] B,2A, | 
[V:1] A2=G & zDD | 
[V:2] C2B, | 
[V:1] B3 & z[=GE][GE] | 
[V:2] E2D | 
[V:1] e2d & [AE][AE][=GE] | 
[V:2] CD/C/B, | 
[V:1] c2=c & [AE][AE][=AE] | 
[V:2] A,B,/A,/G, | 
[V:1] dzd & [_AD]x[cF] | 
[V:2] F,/E,/D,/C,/B,,/A,,/ | 
[V:1] [gBG]zz |]  
[V:2] G,,zz |]
